X: 7996
T: Connaughtman's Rambles, The
R: jig
M: 6/8
K: Dmajor
G|:FA,A, DA,A,|FA,A, DEG|FA,A, DFE|DB,B, B,A,B,|
FA,A, DA,A,|FA,A, DEG|FA,A, DFE|1 DB,B, B,2A,/G/:|2 DB,B, B,2||
G|:FBB FAA|FEF DEG|FBB FAA|FED EDE|
FBB FAA|FEF DEF|GFE DFE|DB,B,B,2:|

